build/assets/images/Frame2.svg

<svg width="55" height="55" viewBox="0 0 55 55" fill="none" xmlns="http://www.w3.org/2000/svg">
<g clip-path="url(#clip0_20_591)">
<path d="M54.248 47.5557L43.5381 36.8457C43.0547 36.3623 42.3994 36.0938 41.7119 36.0938H39.9609C42.9258 32.3018 44.6875 27.5322 44.6875 22.3438C44.6875 10.001 34.6865 0 22.3438 0C10.001 0 0 10.001 0 22.3438C0 34.6865 10.001 44.6875 22.3438 44.6875C27.5322 44.6875 32.3018 42.9258 36.0938 39.9609V41.7119C36.0938 42.3994 36.3623 43.0547 36.8457 43.5381L47.5557 54.248C48.5654 55.2578 50.1982 55.2578 51.1973 54.248L54.2373 51.208C55.2471 50.1982 55.2471 48.5654 54.248 47.5557ZM22.3438 36.0938C14.749 36.0938 8.59375 29.9492 8.59375 22.3438C8.59375 14.749 14.7383 8.59375 22.3438 8.59375C29.9385 8.59375 36.0938 14.7383 36.0938 22.3438C36.0938 29.9385 29.9492 36.0938 22.3438 36.0938Z" fill="white"/>
</g>
<defs>
<clipPath id="clip0_20_591">
<rect width="55" height="55" fill="white"/>
</clipPath>
</defs>
</svg>

<svg width="55" height="55" fill="none" xmlns="http://www.w3.org/2000/svg"><g clip-path="url(#clip0_20_591)"><path d="M54.248 47.556l-10.71-10.71a2.576 2.576 0 00-1.826-.752H39.96a22.234 22.234 0 004.727-13.75C44.688 10 34.685 0 22.343 0 10 0 0 10.001 0 22.344c0 12.343 10.001 22.343 22.344 22.343 5.188 0 9.958-1.761 13.75-4.726v1.75c0 .688.268 1.344.752 1.827l10.71 10.71a2.567 2.567 0 003.641 0l3.04-3.04a2.59 2.59 0 00.011-3.652zM22.344 36.094c-7.595 0-13.75-6.145-13.75-13.75 0-7.595 6.144-13.75 13.75-13.75 7.595 0 13.75 6.144 13.75 13.75 0 7.595-6.145 13.75-13.75 13.75z" fill="#fff"/></g><defs><clipPath id="clip0_20_591"><path fill="#fff" d="M0 0h55v55H0z"/></clipPath></defs></svg>
